X:4
T:Donna Lee
C:Charlie Parker
L:1/8
M:C
I:linebreak $
K:Ab
"Ab6" z4 (3gag f=e |"F7" _edcB =ACEF |"Bb7" (3_GAG FE =DFAc | GF z2 z2 =E=D |"Bbm" E2 z D FAce |
"Eb7" dFAc =BG=ED |$"Ab" CEGB A2 EF |"Ebm" _GBdf"D7" =ec z2 |"Db" e4- edcB |"Dbm" ed z2 _g_fed |
"Ab" ccd=d e_dcB |"F7" =Acef (3_gag fe |$"Bb7" =dc=B=A _B_A z =D/F/ | (3G_GF =E2 z4 |
"Bbm" edFA cBAF |"Eb7" GBde (3_f_g_f ed ||"Ab" c2 z2"G7" (3gag f=e |"F7" _edcB =ACEF |$
"Bb7" (3_GAG FE =DFAc | GF z2 z2 GF |"Bbm" =EFGA BAGF |"Gø" (3ded cB"C7" (3ABA G=E |
"Fm6" F2 z2 z4 |"C7" z4 z2 z G |"Fm6" c=Bc^c =dcd^d |$"C7" =e^ded =d_dcB |"Fm6" (3ABA GA BAGF |
"Bo" =B,=DFA =Bgf=e |"Cm" _edcB"F7" =A_GFE |"Bbm" DFAc"Eb7" BAGE |"Ab6" A4 z4 | z8 |]

